dist/svgs/crypto-icons/icons/nano.svg

<?xml version="1.0" encoding="UTF-8" standalone="yes"?>
<svg xmlns="http://www.w3.org/2000/svg" xmlns:xlink="http://www.w3.org/1999/xlink" width="508px" height="228px" viewBox="0 0 381 171" version="1.1">
  <g id="surface1">
    <path style=" stroke:none;fill-rule:nonzero;fill:rgb(0%,0%,0%);fill-opacity:1;" d="M 54.589844 139.078125 C 54.589844 123.96875 42.371094 111.71875 27.296875 111.71875 C 12.21875 111.71875 0 123.96875 0 139.078125 C 0 154.191406 12.21875 166.441406 27.296875 166.441406 C 42.371094 166.441406 54.589844 154.191406 54.589844 139.078125 Z M 54.589844 139.078125 "/>
    <path style=" stroke:none;fill-rule:nonzero;fill:rgb(0%,0%,0%);fill-opacity:1;" d="M 352.566406 3.421875 C 337.78125 3.421875 325.273438 15.390625 325.273438 30.78125 C 325.273438 52.441406 321.859375 58.140625 297.976562 58.140625 L 295.703125 58.140625 C 282.054688 59.28125 271.25 70.679688 271.25 84.929688 L 271.25 85.5 C 271.25 106.589844 267.269531 111.71875 243.953125 111.71875 C 242.816406 111.71875 241.679688 111.71875 241.109375 112.289062 C 227.460938 114 216.660156 125.398438 216.660156 139.078125 C 216.660156 153.898438 228.601562 166.441406 243.953125 166.441406 C 258.171875 166.441406 270.113281 155.039062 270.679688 141.359375 L 270.679688 139.078125 C 270.679688 119.699219 276.9375 112.289062 297.40625 111.71875 L 297.976562 111.71875 C 312.191406 111.71875 324.132812 100.320312 324.703125 86.070312 L 324.703125 84.359375 C 324.703125 64.410156 330.957031 57 352 57 C 366.785156 57 379.292969 45.03125 379.292969 29.640625 C 379.292969 15.390625 367.351562 3.421875 352.566406 3.421875 Z M 192.207031 58.140625 L 189.929688 58.140625 C 166.046875 58.140625 162.636719 52.441406 162.636719 30.78125 C 162.636719 15.960938 150.695312 3.421875 135.339844 3.421875 C 120.554688 3.421875 108.042969 15.390625 108.042969 30.78125 C 108.042969 52.441406 104.632812 57.570312 80.75 57.570312 L 78.476562 57.570312 C 64.828125 58.710938 54.023438 70.109375 54.023438 84.359375 C 54.023438 99.179688 65.964844 111.71875 81.316406 111.71875 C 95.535156 111.71875 107.476562 100.320312 108.042969 86.640625 L 108.042969 84.929688 C 108.042969 64.980469 114.300781 57.570312 135.339844 57.570312 C 156.378906 57.570312 162.636719 64.980469 162.636719 84.359375 C 162.636719 99.179688 174.578125 111.71875 189.929688 111.71875 C 205.285156 111.71875 217.226562 99.75 217.226562 84.359375 C 216.660156 70.679688 205.855469 59.28125 192.207031 58.140625 Z M 192.207031 58.140625 "/>
  </g>
</svg>

<svg xmlns="http://www.w3.org/2000/svg" viewBox="0 0 381 171"><path d="M54.59 139.078c0-15.11-12.219-27.36-27.293-27.36-15.078 0-27.297 12.25-27.297 27.36 0 15.113 12.219 27.363 27.297 27.363 15.074 0 27.293-12.25 27.293-27.363zM352.566 3.422c-14.785 0-27.293 11.969-27.293 27.36 0 21.66-3.414 27.359-27.296 27.359h-2.274C282.055 59.28 271.25 70.68 271.25 84.93v.57c0 21.09-3.98 26.219-27.297 26.219-1.137 0-2.273 0-2.844.57-13.648 1.711-24.449 13.11-24.449 26.79 0 14.82 11.942 27.362 27.293 27.362 14.219 0 26.16-11.402 26.727-25.082v-2.28c0-19.38 6.257-26.79 26.726-27.36h.57c14.215 0 26.157-11.399 26.727-25.649v-1.71C324.703 64.41 330.957 57 352 57c14.785 0 27.293-11.969 27.293-27.36 0-14.25-11.941-26.218-26.727-26.218zM192.207 58.14h-2.277c-23.883 0-27.293-5.7-27.293-27.36 0-14.82-11.942-27.36-27.297-27.36-14.785 0-27.297 11.97-27.297 27.36 0 21.66-3.41 26.79-27.293 26.79h-2.273c-13.649 1.14-24.454 12.538-24.454 26.788 0 14.82 11.942 27.36 27.293 27.36 14.22 0 26.16-11.399 26.727-25.078v-1.71c0-19.95 6.258-27.36 27.297-27.36s27.297 7.41 27.297 26.79c0 14.82 11.941 27.359 27.293 27.359 15.355 0 27.297-11.969 27.297-27.36-.567-13.68-11.372-25.078-25.02-26.218zm0 0"/></svg>
